svgicons/fullscreencollapse.svg

<svg xmlns="http://www.w3.org/2000/svg" viewBox="160 160 320 320"><!--!Font Awesome Free 7.1.0 by @fontawesome - https://fontawesome.com License - https://fontawesome.com/license/free Copyright 2025 Fonticons, Inc.--><path d="M503.5 71c9.4-9.4 24.6-9.4 33.9 0l32 32c9.4 9.4 9.4 24.6 0 33.9l-87 87 39 39c6.9 6.9 8.9 17.2 5.2 26.2S514.2 304 504.5 304h-144c-13.3 0-24-10.7-24-24V136c0-9.7 5.8-18.5 14.8-22.2s19.3-1.7 26.2 5.2l39 39zm-367 265h144c13.3 0 24 10.7 24 24v144c0 9.7-5.8 18.5-14.8 22.2s-19.3 1.7-26.2-5.2l-39-39-87 87c-9.4 9.4-24.6 9.4-33.9 0l-32-32c-9.4-9.4-9.4-24.6 0-33.9l87-87-39-39c-6.9-6.9-8.9-17.2-5.2-26.2s12.4-14.9 22.1-14.9"/></svg>

<svg xmlns="http://www.w3.org/2000/svg" viewBox="160 160 320 320"><!--!Font Awesome Free 7.1.0 by @fontawesome - https://fontawesome.com License - https://fontawesome.com/license/free Copyright 2025 Fonticons, Inc.--><path d="M503.5 71C512.9 61.6 528.1 61.6 537.4 71L569.4 103C578.8 112.4 578.8 127.6 569.4 136.9L482.4 223.9L521.4 262.9C528.3 269.8 530.3 280.1 526.6 289.1C522.9 298.1 514.2 304 504.5 304L360.5 304C347.2 304 336.5 293.3 336.5 280L336.5 136C336.5 126.3 342.3 117.5 351.3 113.8C360.3 110.1 370.6 112.1 377.5 119L416.5 158L503.5 71zM136.5 336L280.5 336C293.8 336 304.5 346.7 304.5 360L304.5 504C304.5 513.7 298.7 522.5 289.7 526.2C280.7 529.9 270.4 527.9 263.5 521L224.5 482L137.5 569C128.1 578.4 112.9 578.4 103.6 569L71.6 537C62.2 527.6 62.2 512.4 71.6 503.1L158.6 416.1L119.6 377.1C112.7 370.2 110.7 359.9 114.4 350.9C118.1 341.9 126.8 336 136.5 336z"/></svg>
